apps/scalable/desktop-environment-gnome.svg

<svg height="48" width="48" xmlns="http://www.w3.org/2000/svg"><path d="m44.322082 27.405077a19.729762 19.729765 0 0 1 -19.729762 19.729765 19.729762 19.729765 0 0 1 -19.7297621-19.729765 19.729762 19.729765 0 0 1 19.7297621-19.7297632 19.729762 19.729765 0 0 1 19.729762 19.7297632z" fill="#6691e6" opacity=".99" transform="matrix(1.1503549 0 0 1.1503549 -4.486125 -7.525565)"/><path d="m32.225938 10.14739c-5.411339 0-6.425779 8.222617-3.379484 8.222617 3.043321 0 8.793798-8.222617 3.379484-8.222617zm-8.332688 1.264331c-.08627 0-.178494.0089-.273691.01487-3.06712.386737-1.990206 5.577933-.356988 5.676105 1.579671.09222 3.308087-5.682055.624729-5.693954zm-5.319117 1.915835c-.187419-.0119-.392687.0238-.624728.118996-2.466191 1.011465-.374838 5.191196 1.005515 4.908581 1.252431-.252866 1.430925-4.911556-.380787-5.027577zm-4.022062 3.415182c-.214193-.0059-.446235.06842-.693151.252867-1.972357 1.472574.666377 5.030551 1.826587 4.477221 1.01444-.481933.365913-4.673565-1.133436-4.730088zm11.652674 3.397333c-4.274928-.07437-9.912359 2.094328-10.876226 6.455528-1.041214 4.715213 4.286828 11.257013 9.846912 11.257013 2.73393 0 5.890297-2.498914 6.479327-5.66718.452184-2.412642-5.304242-1.4458-5.098975.15172.249892 1.915834-1.386302 2.861852-2.986797 1.627269-5.10195-3.92984 8.442759-5.890297 7.55029-11.259987-.27964-1.668919-2.353144-2.519739-4.917506-2.564363zm0 0" fill="#ffffffbfb"/></svg>

<?xml version="1.0" encoding="UTF-8" standalone="no"?>
<svg
   height="48"
   width="48"
   version="1.1"
   id="svg6"
   sodipodi:docname="awf.svg"
   inkscape:version="1.1.2 (0a00cf5339, 2022-02-04)"
   xmlns:inkscape="http://www.inkscape.org/namespaces/inkscape"
   xmlns:sodipodi="http://sodipodi.sourceforge.net/DTD/sodipodi-0.dtd"
   xmlns="http://www.w3.org/2000/svg"
   xmlns:svg="http://www.w3.org/2000/svg">
  <defs
     id="defs10" />
  <sodipodi:namedview
     id="namedview8"
     pagecolor="#ffffff"
     bordercolor="#666666"
     borderopacity="1.0"
     inkscape:pageshadow="2"
     inkscape:pageopacity="0.0"
     inkscape:pagecheckerboard="0"
     showgrid="false"
     inkscape:zoom="8.25"
     inkscape:cx="17.030303"
     inkscape:cy="31.939394"
     inkscape:window-width="1920"
     inkscape:window-height="1029"
     inkscape:window-x="0"
     inkscape:window-y="0"
     inkscape:window-maximized="1"
     inkscape:current-layer="svg6" />
  <path
     id="path2"
     style="stroke-width:1.15035;fill:#5e81ac;fill-opacity:1"
     d="M 23.804688 1.3046875 A 22.696228 22.696232 0 0 0 1.1074219 24 A 22.696228 22.696232 0 0 0 23.804688 46.695312 A 22.696228 22.696232 0 0 0 46.5 24 A 22.696228 22.696232 0 0 0 23.804688 1.3046875 z " />
  <path
     id="path4"
     style="fill:#ffffff;fill-opacity:1"
     d="M 32.226562 10.146484 C 26.815224 10.146484 25.799408 18.369141 28.845703 18.369141 C 31.889024 18.369141 37.640877 10.146484 32.226562 10.146484 z M 23.886719 11.408203 L 23.892578 11.412109 C 23.806308 11.412109 23.714338 11.419811 23.619141 11.425781 C 20.552021 11.812518 21.628501 17.005344 23.261719 17.103516 C 24.84139 17.195736 26.570077 11.420102 23.886719 11.408203 z M 18.574219 13.328125 C 18.3868 13.316225 18.18126 13.35207 17.949219 13.447266 C 15.483028 14.458731 17.574725 18.638084 18.955078 18.355469 C 20.207509 18.102603 20.385931 13.444146 18.574219 13.328125 z M 14.552734 16.742188 C 14.338541 16.736287 14.106291 16.811647 13.859375 16.996094 C 11.887018 18.468668 14.525337 22.025986 15.685547 21.472656 C 16.699987 20.990723 16.052083 16.798711 14.552734 16.742188 z M 26.201172 20.140625 C 21.926708 20.067618 16.291704 22.235807 15.328125 26.595703 C 14.286911 31.310916 19.615697 37.853516 25.175781 37.853516 C 27.909711 37.853516 31.065267 35.353813 31.654297 32.185547 C 32.106481 29.772905 26.351374 30.740371 26.556641 32.337891 C 26.806533 34.253725 25.168854 35.199427 23.568359 33.964844 C 18.466409 30.035004 32.01161 28.074768 31.119141 22.705078 C 30.839644 21.037016 28.767618 20.186054 26.205078 20.140625 L 26.203125 20.140625 L 26.201172 20.140625 z " />
</svg>
